public/logo.svg

<svg width="163" height="42" viewBox="0 0 163 42" fill="none" xmlns="http://www.w3.org/2000/svg">
<path d="M58.208 31V14.2H65.288C66.28 14.2 67.168 14.44 67.952 14.92C68.752 15.384 69.384 16.024 69.848 16.84C70.328 17.64 70.568 18.544 70.568 19.552C70.568 20.592 70.328 21.528 69.848 22.36C69.384 23.176 68.752 23.832 67.952 24.328C67.168 24.808 66.28 25.048 65.288 25.048H61.664V31H58.208ZM61.64 21.904H64.928C65.52 21.904 66.016 21.688 66.416 21.256C66.832 20.808 67.04 20.256 67.04 19.6C67.04 18.944 66.832 18.408 66.416 17.992C66.016 17.56 65.52 17.344 64.928 17.344H61.64V21.904Z" fill="#494D4B"/>
<path d="M78.959 31.24C77.663 31.24 76.511 30.96 75.503 30.4C74.495 29.824 73.703 29.04 73.127 28.048C72.551 27.056 72.263 25.92 72.263 24.64C72.263 23.376 72.551 22.248 73.127 21.256C73.703 20.264 74.495 19.488 75.503 18.928C76.511 18.352 77.663 18.064 78.959 18.064C80.223 18.064 81.359 18.352 82.367 18.928C83.375 19.488 84.167 20.264 84.743 21.256C85.319 22.248 85.607 23.376 85.607 24.64C85.607 25.92 85.319 27.056 84.743 28.048C84.167 29.04 83.375 29.824 82.367 30.4C81.359 30.96 80.223 31.24 78.959 31.24ZM78.959 28.384C79.599 28.384 80.175 28.224 80.687 27.904C81.199 27.568 81.591 27.12 81.863 26.56C82.151 26 82.295 25.36 82.295 24.64C82.295 23.92 82.151 23.28 81.863 22.72C81.591 22.16 81.199 21.72 80.687 21.4C80.175 21.08 79.599 20.92 78.959 20.92C78.303 20.92 77.719 21.08 77.207 21.4C76.695 21.72 76.295 22.16 76.007 22.72C75.719 23.28 75.575 23.92 75.575 24.64C75.575 25.36 75.719 26 76.007 26.56C76.295 27.12 76.695 27.568 77.207 27.904C77.719 28.224 78.303 28.384 78.959 28.384Z" fill="#494D4B"/>
<path d="M93.2122 31.24C92.0922 31.24 91.0922 30.96 90.2122 30.4C89.3322 29.824 88.6362 29.04 88.1242 28.048C87.6282 27.056 87.3802 25.928 87.3802 24.664C87.3802 23.384 87.6282 22.248 88.1242 21.256C88.6362 20.264 89.3322 19.488 90.2122 18.928C91.0922 18.352 92.0922 18.064 93.2122 18.064C93.9802 18.064 94.7082 18.216 95.3962 18.52C96.1002 18.824 96.6682 19.216 97.1002 19.696V13.24H100.388V31H97.2682L97.2202 29.488C96.8042 29.984 96.2362 30.4 95.5162 30.736C94.7962 31.072 94.0282 31.24 93.2122 31.24ZM93.9322 28.504C94.9082 28.504 95.7002 28.152 96.3082 27.448C96.9162 26.728 97.2202 25.8 97.2202 24.664C97.2202 23.512 96.9162 22.584 96.3082 21.88C95.7002 21.16 94.9082 20.8 93.9322 20.8C92.9562 20.8 92.1642 21.16 91.5562 21.88C90.9482 22.584 90.6442 23.512 90.6442 24.664C90.6442 25.8 90.9482 26.728 91.5562 27.448C92.1642 28.152 92.9562 28.504 93.9322 28.504Z" fill="#494D4B"/>
<path d="M109.208 31.24C108.008 31.24 106.928 30.952 105.968 30.376C105.024 29.8 104.272 29.016 103.712 28.024C103.168 27.032 102.896 25.904 102.896 24.64C102.896 23.392 103.168 22.272 103.712 21.28C104.272 20.288 105.024 19.504 105.968 18.928C106.928 18.352 108.008 18.064 109.208 18.064C110.344 18.064 111.376 18.272 112.304 18.688C113.248 19.104 113.984 19.688 114.512 20.44L112.712 22.6C112.376 22.136 111.912 21.744 111.32 21.424C110.728 21.088 110.128 20.92 109.52 20.92C108.848 20.92 108.248 21.088 107.72 21.424C107.208 21.744 106.8 22.184 106.496 22.744C106.208 23.304 106.064 23.936 106.064 24.64C106.064 25.344 106.216 25.976 106.52 26.536C106.824 27.096 107.24 27.544 107.768 27.88C108.296 28.2 108.888 28.36 109.544 28.36C110.168 28.36 110.744 28.224 111.272 27.952C111.8 27.664 112.28 27.264 112.712 26.752L114.512 28.912C113.968 29.616 113.216 30.184 112.256 30.616C111.296 31.032 110.28 31.24 109.208 31.24Z" fill="#494D4B"/>
<path d="M121.472 31.24C120.416 31.24 119.464 30.952 118.616 30.376C117.768 29.8 117.088 29.016 116.576 28.024C116.08 27.032 115.832 25.904 115.832 24.64C115.832 23.344 116.08 22.208 116.576 21.232C117.088 20.24 117.776 19.464 118.64 18.904C119.52 18.344 120.512 18.064 121.616 18.064C122.512 18.064 123.296 18.248 123.968 18.616C124.64 18.968 125.176 19.432 125.576 20.008V18.328H128.84V31H125.552V29.296C125.104 29.856 124.52 30.32 123.8 30.688C123.096 31.056 122.32 31.24 121.472 31.24ZM122.36 28.384C123.336 28.384 124.128 28.04 124.736 27.352C125.344 26.664 125.648 25.76 125.648 24.64C125.648 23.52 125.344 22.616 124.736 21.928C124.128 21.24 123.336 20.896 122.36 20.896C121.4 20.896 120.616 21.24 120.008 21.928C119.416 22.616 119.12 23.52 119.12 24.64C119.12 25.76 119.416 26.664 120.008 27.352C120.616 28.04 121.4 28.384 122.36 28.384Z" fill="#494D4B"/>
<path d="M136.531 31.24C135.363 31.24 134.323 31.048 133.411 30.664C132.499 30.28 131.763 29.736 131.203 29.032L133.267 27.28C133.747 27.808 134.291 28.192 134.899 28.432C135.507 28.656 136.123 28.768 136.747 28.768C137.243 28.768 137.643 28.656 137.947 28.432C138.251 28.208 138.403 27.896 138.403 27.496C138.403 27.144 138.259 26.864 137.971 26.656C137.683 26.464 136.995 26.224 135.907 25.936C134.291 25.52 133.147 24.952 132.475 24.232C131.883 23.592 131.587 22.8 131.587 21.856C131.587 21.104 131.811 20.448 132.259 19.888C132.707 19.312 133.299 18.864 134.035 18.544C134.771 18.224 135.571 18.064 136.435 18.064C137.427 18.064 138.363 18.24 139.243 18.592C140.123 18.944 140.859 19.424 141.451 20.032L139.675 21.976C139.227 21.56 138.707 21.216 138.115 20.944C137.539 20.656 137.003 20.512 136.507 20.512C135.355 20.512 134.779 20.912 134.779 21.712C134.795 22.096 134.971 22.4 135.307 22.624C135.627 22.848 136.355 23.112 137.491 23.416C139.011 23.816 140.083 24.344 140.707 25C141.251 25.56 141.523 26.304 141.523 27.232C141.523 28 141.299 28.688 140.851 29.296C140.419 29.904 139.827 30.384 139.075 30.736C138.323 31.072 137.475 31.24 136.531 31.24Z" fill="#494D4B"/>
<path d="M145.249 31V21.28H142.849V18.328H145.249V15.088H148.513V18.328H151.177V21.28H148.513V31H145.249Z" fill="#494D4B"/>
<path d="M153.376 31V18.328H156.544L156.592 20.416C157.008 19.728 157.552 19.168 158.224 18.736C158.912 18.288 159.632 18.064 160.384 18.064C160.672 18.064 160.936 18.088 161.176 18.136C161.432 18.168 161.648 18.216 161.824 18.28L160.936 21.88C160.76 21.784 160.536 21.704 160.264 21.64C159.992 21.576 159.72 21.544 159.448 21.544C158.664 21.544 158 21.816 157.456 22.36C156.928 22.888 156.664 23.56 156.664 24.376V31H153.376Z" fill="#494D4B"/>
<path d="M38.125 21.8876C38.1494 25.0542 37.3398 28.1714 35.7774 30.9259C35.575 31.2837 35.3607 31.6337 35.1344 31.9759C35.0225 32.1498 34.8772 32.2998 34.7069 32.4171C34.5367 32.5345 34.3448 32.6169 34.1424 32.6595C33.94 32.7021 33.7312 32.7041 33.5281 32.6655C33.3249 32.6268 33.1315 32.5482 32.9589 32.4341C32.7864 32.3201 32.6382 32.173 32.523 32.0013C32.4077 31.8296 32.3277 31.6367 32.2875 31.4338C32.2474 31.231 32.2479 31.0222 32.2891 30.8195C32.3303 30.6168 32.4113 30.4243 32.5274 30.2532C34.0185 27.9897 34.8685 25.3644 34.987 22.6564C35.1054 19.9484 34.4879 17.2589 33.2001 14.8738C31.9123 12.4887 30.0022 10.4971 27.673 9.11069C25.3438 7.7243 22.6825 6.99493 19.9719 7.0001C14.7618 7.01026 10.1422 9.74541 7.45706 13.8321C5.85189 16.2703 4.99772 19.1259 5.0005 22.045C5.00327 24.9641 5.86288 27.8182 7.47269 30.2532C7.70092 30.5991 7.78239 31.0216 7.69917 31.4275C7.61595 31.8335 7.37486 32.1898 7.02894 32.4181C6.68302 32.6463 6.2606 32.7278 5.85461 32.6445C5.44863 32.5613 5.09233 32.3202 4.8641 31.9743C3.0791 29.2655 2.05381 26.1272 1.89521 22.887C1.73662 19.6468 2.45053 16.4235 3.96245 13.5533C5.47437 10.6831 7.72889 8.27121 10.4907 6.56941C13.2526 4.86761 16.4206 3.93822 19.6641 3.87822C19.7782 3.87588 19.8914 3.8751 20.0047 3.8751C24.7949 3.86523 29.3933 5.75637 32.7905 9.13341C36.1878 12.5105 38.1063 17.0975 38.125 21.8876V21.8876Z" fill="#494D4B"/>
<path d="M36.1477 29.0875L35.7774 30.9258C35.575 31.2836 35.3607 31.6336 35.1344 31.9758C35.0225 32.1497 34.8772 32.2997 34.7069 32.4171C34.5366 32.5344 34.3448 32.6168 34.1424 32.6594C33.94 32.702 33.7312 32.7041 33.5281 32.6654C33.3249 32.6267 33.1315 32.5481 32.9589 32.4341C32.7864 32.3201 32.6382 32.1729 32.5229 32.0012C32.4077 31.8295 32.3277 31.6366 32.2875 31.4338C32.2474 31.2309 32.2479 31.0221 32.2891 30.8194C32.3303 30.6167 32.4112 30.4243 32.5274 30.2531C33.5865 28.6502 34.3258 26.8577 34.7047 24.9742C35.2927 25.4668 35.7371 26.1089 35.991 26.8327C36.245 27.5566 36.2991 28.3355 36.1477 29.0875Z" fill="#8AE4B9"/>
<path d="M3.84744 29.0875L4.21776 30.9258C4.4201 31.2836 4.63442 31.6336 4.86072 31.9758C4.97261 32.1497 5.11791 32.2997 5.28819 32.4171C5.45848 32.5344 5.65036 32.6168 5.85273 32.6594C6.05509 32.702 6.2639 32.7041 6.46705 32.6654C6.6702 32.6267 6.86366 32.5481 7.0362 32.4341C7.20874 32.3201 7.35692 32.1729 7.47217 32.0012C7.58742 31.8295 7.66744 31.6366 7.70758 31.4338C7.74773 31.2309 7.7472 31.0221 7.70603 30.8194C7.66486 30.6167 7.58387 30.4243 7.46776 30.2531C6.40861 28.6502 5.66927 26.8577 5.29041 24.9742C4.70237 25.4668 4.258 26.1089 4.00407 26.8327C3.75014 27.5566 3.69603 28.3355 3.84744 29.0875Z" fill="#8AE4B9"/>
<path d="M11.8439 38.5641L11.1259 38.7086C10.0591 38.9234 8.95051 38.7225 8.0269 38.147C7.10328 37.5715 6.43445 36.6648 6.15718 35.6125C6.13609 35.5313 6.11656 35.45 6.10015 35.3672L5.07125 30.2555C4.84827 29.1459 5.07497 27.9931 5.70153 27.0506C6.32808 26.108 7.30323 25.4528 8.41265 25.2289L9.13062 25.0844L10.39 31.3406L11.8439 38.5641Z" fill="#494D4B"/>
<path d="M34.9289 30.2555L33.9 35.3672C33.6766 36.4767 33.0216 37.4521 32.0791 38.0787C31.1366 38.7054 29.9838 38.9319 28.8742 38.7086L28.1562 38.5641L28.9 34.8711L30.8695 25.0844L31.5875 25.2289C32.6968 25.4531 33.672 26.108 34.2992 27.05C34.3856 27.1799 34.4646 27.3144 34.5359 27.4531C34.9817 28.3154 35.1203 29.3038 34.9289 30.2555V30.2555Z" fill="#494D4B"/>
<path d="M11.8437 38.5641L11.1257 38.7086C10.0589 38.9234 8.95031 38.7225 8.02669 38.147C7.10308 37.5715 6.43425 36.6649 6.15698 35.6125C7.67436 34.2981 9.08939 32.87 10.3898 31.3407L11.8437 38.5641Z" fill="#808080"/>
<path d="M28.1563 38.5641L28.8743 38.7086C29.9411 38.9234 31.0497 38.7225 31.9733 38.147C32.8969 37.5715 33.5658 36.6649 33.843 35.6125C32.3256 34.2981 30.9106 32.87 29.6102 31.3407L28.1563 38.5641Z" fill="#808080"/>
<path d="M9.06588 24.7944L11.8978 38.8819C12.0678 39.7276 12.8911 40.2753 13.7368 40.1053C14.5825 39.9353 15.1303 39.1119 14.9603 38.2663L12.1284 24.1788C11.9584 23.3331 11.135 22.7853 10.2893 22.9553C9.44363 23.1253 8.89588 23.9487 9.06588 24.7944Z" fill="#8AE4B9"/>
<path d="M27.8462 24.1635L25.0144 38.251C24.8444 39.0967 25.3921 39.9201 26.2378 40.0901C27.0835 40.2601 27.9069 39.7123 28.0769 38.8666L30.9087 24.7791C31.0787 23.9335 30.531 23.1101 29.6853 22.9401C28.8396 22.7701 28.0162 23.3178 27.8462 24.1635Z" fill="#8AE4B9"/>
<path d="M34.8866 10.3683C35.1196 10.6668 35.0934 11.0922 34.8256 11.36L32.5842 13.6014C32.4299 13.7558 32.2159 13.8352 31.9982 13.819C31.7805 13.8028 31.5807 13.6926 31.4509 13.517C30.1242 11.723 28.3941 10.2662 26.4004 9.26441C24.4067 8.26259 22.2052 7.74381 19.974 7.75001L19.9733 7.75001C15.0304 7.75965 10.6391 10.3548 8.08384 14.2439C7.95997 14.4324 7.75783 14.5552 7.53343 14.5781C7.30903 14.6011 7.08621 14.5219 6.9267 14.3624L4.65326 12.0889C4.39543 11.8311 4.36039 11.4252 4.57025 11.127C6.27731 8.70123 8.53274 6.71257 11.1532 5.32269C13.7733 3.93298 16.6843 3.18114 19.6497 3.12828C19.65 3.12827 19.6504 3.12826 19.6507 3.12826L19.6641 3.87814C19.7781 3.8758 19.8914 3.87501 20.0047 3.87501L34.8866 10.3683ZM34.8866 10.3683C33.1215 8.10675 30.863 6.27852 28.2835 5.02318C25.7043 3.76796 22.8723 3.11872 20.0039 3.12501L34.8866 10.3683Z" fill="#6489E8" stroke="#6489E8" stroke-width="1.5" stroke-linejoin="round"/>
</svg>

<svg width="163" height="42" viewBox="0 0 163 42" fill="#494D4B" xmlns="http://www.w3.org/2000/svg"><path d="M58.208 31V14.2h7.08c.992 0 1.88.24 2.664.72a5.08 5.08 0 011.896 1.92c.48.8.72 1.704.72 2.712 0 1.04-.24 1.976-.72 2.808a5.452 5.452 0 01-1.896 1.968c-.784.48-1.672.72-2.664.72h-3.624V31h-3.456zm3.432-9.096h3.288c.592 0 1.088-.216 1.488-.648.416-.448.624-1 .624-1.656 0-.656-.208-1.192-.624-1.608a1.946 1.946 0 00-1.488-.648H61.64v4.56zM78.959 31.24c-1.296 0-2.448-.28-3.456-.84a6.326 6.326 0 01-2.376-2.352c-.576-.992-.864-2.128-.864-3.408 0-1.264.288-2.392.864-3.384a6.152 6.152 0 012.376-2.328c1.008-.576 2.16-.864 3.456-.864 1.264 0 2.4.288 3.408.864a6.152 6.152 0 012.376 2.328c.576.992.864 2.12.864 3.384 0 1.28-.288 2.416-.864 3.408a6.326 6.326 0 01-2.376 2.352c-1.008.56-2.144.84-3.408.84zm0-2.856c.64 0 1.216-.16 1.728-.48a3.301 3.301 0 001.176-1.344c.288-.56.432-1.2.432-1.92s-.144-1.36-.432-1.92c-.272-.56-.664-1-1.176-1.32a3.193 3.193 0 00-1.728-.48c-.656 0-1.24.16-1.752.48-.512.32-.912.76-1.2 1.32-.288.56-.432 1.2-.432 1.92s.144 1.36.432 1.92a3.48 3.48 0 001.2 1.344c.512.32 1.096.48 1.752.48zM93.212 31.24c-1.12 0-2.12-.28-3-.84-.88-.576-1.576-1.36-2.088-2.352-.496-.992-.744-2.12-.744-3.384 0-1.28.248-2.416.744-3.408.512-.992 1.208-1.768 2.088-2.328.88-.576 1.88-.864 3-.864.768 0 1.496.152 2.184.456.704.304 1.272.696 1.704 1.176V13.24h3.288V31h-3.12l-.048-1.512c-.416.496-.984.912-1.704 1.248a5.382 5.382 0 01-2.304.504zm.72-2.736c.976 0 1.768-.352 2.376-1.056.608-.72.912-1.648.912-2.784 0-1.152-.304-2.08-.912-2.784-.608-.72-1.4-1.08-2.376-1.08s-1.768.36-2.376 1.08c-.608.704-.912 1.632-.912 2.784 0 1.136.304 2.064.912 2.784.608.704 1.4 1.056 2.376 1.056zM109.208 31.24c-1.2 0-2.28-.288-3.24-.864a6.37 6.37 0 01-2.256-2.352c-.544-.992-.816-2.12-.816-3.384 0-1.248.272-2.368.816-3.36a6.37 6.37 0 012.256-2.352c.96-.576 2.04-.864 3.24-.864 1.136 0 2.168.208 3.096.624.944.416 1.68 1 2.208 1.752l-1.8 2.16c-.336-.464-.8-.856-1.392-1.176-.592-.336-1.192-.504-1.8-.504a3.28 3.28 0 00-1.8.504c-.512.32-.92.76-1.224 1.32-.288.56-.432 1.192-.432 1.896s.152 1.336.456 1.896c.304.56.72 1.008 1.248 1.344.528.32 1.12.48 1.776.48.624 0 1.2-.136 1.728-.408a5.055 5.055 0 001.44-1.2l1.8 2.16c-.544.704-1.296 1.272-2.256 1.704a7.584 7.584 0 01-3.048.624zM121.472 31.24a4.967 4.967 0 01-2.856-.864c-.848-.576-1.528-1.36-2.04-2.352-.496-.992-.744-2.12-.744-3.384 0-1.296.248-2.432.744-3.408.512-.992 1.2-1.768 2.064-2.328.88-.56 1.872-.84 2.976-.84.896 0 1.68.184 2.352.552a4.404 4.404 0 011.608 1.392v-1.68h3.264V31h-3.288v-1.704c-.448.56-1.032 1.024-1.752 1.392a4.948 4.948 0 01-2.328.552zm.888-2.856c.976 0 1.768-.344 2.376-1.032.608-.688.912-1.592.912-2.712s-.304-2.024-.912-2.712c-.608-.688-1.4-1.032-2.376-1.032-.96 0-1.744.344-2.352 1.032-.592.688-.888 1.592-.888 2.712s.296 2.024.888 2.712c.608.688 1.392 1.032 2.352 1.032zM136.531 31.24c-1.168 0-2.208-.192-3.12-.576-.912-.384-1.648-.928-2.208-1.632l2.064-1.752a4.36 4.36 0 001.632 1.152 5.309 5.309 0 001.848.336c.496 0 .896-.112 1.2-.336.304-.224.456-.536.456-.936a.984.984 0 00-.432-.84c-.288-.192-.976-.432-2.064-.72-1.616-.416-2.76-.984-3.432-1.704-.592-.64-.888-1.432-.888-2.376 0-.752.224-1.408.672-1.968.448-.576 1.04-1.024 1.776-1.344a5.954 5.954 0 012.4-.48 7.49 7.49 0 012.808.528c.88.352 1.616.832 2.208 1.44l-1.776 1.944a5.88 5.88 0 00-1.56-1.032c-.576-.288-1.112-.432-1.608-.432-1.152 0-1.728.4-1.728 1.2.016.384.192.688.528.912.32.224 1.048.488 2.184.792 1.52.4 2.592.928 3.216 1.584.544.56.816 1.304.816 2.232 0 .768-.224 1.456-.672 2.064-.432.608-1.024 1.088-1.776 1.44-.752.336-1.6.504-2.544.504zM145.249 31v-9.72h-2.4v-2.952h2.4v-3.24h3.264v3.24h2.664v2.952h-2.664V31h-3.264zM153.376 31V18.328h3.168l.048 2.088a5.12 5.12 0 011.632-1.68c.688-.448 1.408-.672 2.16-.672.288 0 .552.024.792.072.256.032.472.08.648.144l-.888 3.6a2.712 2.712 0 00-.672-.24 3.552 3.552 0 00-.816-.096c-.784 0-1.448.272-1.992.816-.528.528-.792 1.2-.792 2.016V31h-3.288zM38.125 21.888a18.037 18.037 0 01-2.99 10.088 1.562 1.562 0 11-2.608-1.723A15.002 15.002 0 0019.972 7c-5.21.01-9.83 2.745-12.515 6.832a14.91 14.91 0 00.016 16.421 1.563 1.563 0 01-2.609 1.721 18.126 18.126 0 0115.14-28.099 18.083 18.083 0 0118.121 18.013z"/><path d="M36.148 29.087l-.37 1.839c-.203.358-.417.708-.644 1.05a1.564 1.564 0 01-2.845-1.157c.041-.202.122-.395.238-.566a14.91 14.91 0 002.178-5.279 4.267 4.267 0 011.443 4.113zM3.847 29.087l.37 1.839c.203.358.417.708.644 1.05a1.564 1.564 0 002.847-.542 1.563 1.563 0 00-.24-1.18 14.908 14.908 0 01-2.178-5.28 4.267 4.267 0 00-1.443 4.113z" fill="#8AE4B9"/><path d="M11.844 38.564l-.718.145A4.267 4.267 0 016.1 35.367l-1.029-5.111a4.27 4.27 0 013.342-5.027l.718-.145 1.259 6.257 1.454 7.223zM34.929 30.256L33.9 35.367a4.268 4.268 0 01-5.026 3.342l-.718-.145.744-3.693 1.97-9.787.717.145a4.275 4.275 0 012.949 2.224 4.27 4.27 0 01.393 2.803z"/><path d="M11.844 38.564l-.718.145a4.267 4.267 0 01-4.969-3.097 39.532 39.532 0 004.233-4.271l1.454 7.223zM28.156 38.564l.718.145a4.267 4.267 0 004.969-3.097 39.529 39.529 0 01-4.233-4.271l-1.454 7.223z" fill="gray"/><path d="M9.066 24.794l2.832 14.088a1.562 1.562 0 103.062-.616L12.128 24.18a1.562 1.562 0 00-3.062.615zM27.846 24.163l-2.832 14.088a1.562 1.562 0 103.063.616l2.832-14.088a1.562 1.562 0 10-3.063-.616z" fill="#8AE4B9"/><path d="M34.826 11.36a.75.75 0 00.06-.992 18.827 18.827 0 00-6.603-5.345c-2.579-1.255-5.765-1.901-8.633-1.895a18.85 18.85 0 00-15.08 7.999.75.75 0 00.083.962l2.274 2.273a.75.75 0 001.157-.118c2.555-3.89 6.947-6.484 11.89-6.494a14.225 14.225 0 0111.477 5.767.75.75 0 001.133.084l2.242-2.241z" fill="#6489E8" stroke="#6489E8" stroke-width="1.5" stroke-linejoin="round"/></svg>
